X: 2112
Q: "Strathspey."
M: C
L: 1/16
K: G
ud2 |\
vBG3G3ud BcdB G2B2 | EA3A3G FD3D3d |\
ud2 |\
vg3vaub3ug ae3g3ud |
eg3 d2(cB) aA3A3ud |\
[1 g3ab3g ae3g3ud | eg3d3c BG3G2 :|\
[2 bg3ae3 gd3 e2(dc) | Bg3d3c BG3G2 |]


